X:14498
T:Rondeau d'Ernest Lurdes 1
C:trad
A:Gers
O:France
Z:S. Piron
M:6/8
L:1/8
Q:1/4=190
K:C
geg g2e|geg g2e|gfe dcd|1fed e2c:|2fed c3|
|:cde dcd|fed e2c|cde dcd|fed c3:||
